X:1
T:Te Deum - Anerio F
T:James Gibb editions
T:#
%%score 1 2 3
L:1/8
Q:1/4=140
M:4/4
K:C
V:1 treble nm="Soprano" snm="Soprano"
V:2 treble nm="Alto" snm="Alto"
V:3 treble-8 nm="Tenor" snm="Tenor"
V:1
 z24 ||[M:4/2][K:treble][Q:1/4=240][Q:1/4=240][Q:1/4=240] A8 A8- | A4 A4 A8 | B8 (G8 | %4
w: |Te Do\-|* mi- num|* con\-|
 c8) B4 (A4- | A2 G2 G8 ^F2 E2 | ^F8) G16 ||[Q:1/4=140][Q:1/4=140][Q:1/4=140] z18 | z26 || %9
w: * fi- te\-||* mur.|||
[M:4/2][Q:1/4=240][Q:1/4=240][Q:1/4=240] G16 | G8 A8 | ^G8 (A8- | A4 ^G2 ^F2 G4) G4 | A8 z8 | %14
w: Ti-|bi o-|mnes An\-|* * * * ge-|li:|
 A8 A8 | A8 A4 A4 | A4 A4 B8- | B8 G8- | G4 c4 B4 (A4- | A2 G2 G8 ^F4) | G16 || %21
w: ti- bi|coe- li, et|u- ni- ver\-|* sae|* po- te- sta\-||tes.|
[Q:1/4=140][Q:1/4=140][Q:1/4=140] z26 | z30 ||[M:3/1][Q:1/4=480][Q:1/4=480][Q:1/4=480] z16 x8 | %24
w: |||
 (G12 A4 B8 | c16 B8 | A16 ^G8) | A16 z8 | (A16 ^G8) | A24 | %30
w: San\- * *|||ctus,|San\- *|ctus,|
[Q:1/4=240][Q:1/4=240][Q:1/4=240] A8 A4 A4- | A4 A4 (A8 | B8) G8 | (c8 B8) | (B8 A6) A2 | G16 || %36
w: San- ctus Do\-|* mi- nus|* De-|us *|Sa\- * ba-|oth.|
[Q:1/4=140][Q:1/4=140][Q:1/4=140] z22 | z28 ||[Q:1/4=240][Q:1/4=240][Q:1/4=240] c8 B8 | A8 G8- | %40
w: ||Te glo-|ri- o\-|
 G8 (A8 | G8) z4 G4 | B4 d4 c8 |[M:4/2] B8 z4 G4 | G4 G4 A8 | G8 (c6 B2 | A2 G2 G8 ^F4) | G16 || %48
w: * sus|* A-|po- sto- lo-|rum, A-|po- sto- lo-|rum cho\- *||rus:|
[Q:1/4=140][Q:1/4=140][Q:1/4=140] z36 ||[Q:1/4=240][Q:1/4=240][Q:1/4=240] A4 A8 A4 | A16 | G16- | %52
w: |Te Mar- ty-|rum|can\-|
 G8 c8 | A16 |[M:4/2] ^F16 | z8 G8 | E8 A8 | G12 ^F4 | G16 || %59
w: * di-|da-|tus|lau-|dat ex-|er- ci-|tus.|
[Q:1/4=140][Q:1/4=140][Q:1/4=140] z20 | z28 ||[Q:1/4=240][Q:1/4=240][Q:1/4=240] (^G8 A8 | B16) | %63
w: ||Pa\- *||
 A16 | c16 | B16 |[M:4/2] A16 | (G8 A8) | B8 G8- | G8 E8- | E16 || %71
w: trem|im-|men-|sae|ma\- *|je- sta\-|* tis:||
[Q:1/4=140][Q:1/4=140][Q:1/4=140] z22 | z20 ||[Q:1/4=240][Q:1/4=240][Q:1/4=240] (A12 B4 | c16) | %75
w: ||San\- *||
 B8 z8 | z8 A8 | G4 F4 E4 G4 | G4 E8 E4 | E16 ||[Q:1/4=140][Q:1/4=140][Q:1/4=140] z22 || %81
w: ctum,|quo-|que Pa- ra- cli-|tum Spi- ri-|tum.||
[Q:1/4=240][Q:1/4=240][Q:1/4=240] A8 A8 | A4 A8 A4 | ^G8 A8 | B8 G4 G4 | E16- | E16 || %87
w: Tu Pa-|tris sem- pi-|ter- nus|es Fi- li-|us.||
[Q:1/4=140][Q:1/4=140][Q:1/4=140] z38 | z30 ||[Q:1/4=240][Q:1/4=240][Q:1/4=240] z8 c8- | %90
w: ||Tu|
 c4 c4 c4 c4 | c8 B8- | B8 A4 (B4- | B2 A2 A8) ^G4 | A8 A8 |[M:4/2] A4 A4 A8 | A4 A4 A4 A4 | %97
w: * de- vi- cto|mor- tis|* a- cu\-|* * * le-|o: a-|pe- ru- i-|sti cre- den- ti-|
 A8 G8 | A8 B8 | G8 E8- | E16 | E24 ||[Q:1/4=140][Q:1/4=140][Q:1/4=140] z28 | z18 || %104
w: bus re-|gna coe-|lo- rum.|||||
[Q:1/4=240][Q:1/4=240][Q:1/4=240] E16 | E16 | z4 A8 A4 | G8 z4 d4 | c4 B4 A8 | G4 d4 c4 B4 | A16 | %111
w: Ju-|dex|cre- de-|ris es-|se ven- tu-|rus, es- se ven-|tu-|
 ^G16 || A8 A8- | A4 A4 A8- | A4 A4 A8 | A4 A4 A8 | (G6 A2 B4) c4- | c4 A8 ^G4 | A16 | z16 | %120
w: rus.|Te er\-|* go quae\-|* su- mus,|fa- mu- lis|tu\- * * is|* sub- ve-|ni:||
[M:4/2] A8 A4 A4 | A8 A4 A4- | A4 A4 ^G8 | A16- | A16 | B16 | G16 | E16- | E16 || %129
w: quos pre- ti-|o- so san\-|* gui- ne|re\-||de-|mi-|sti.||
[Q:1/4=140][Q:1/4=140][Q:1/4=140] z18 | z32 ||[Q:1/4=240][Q:1/4=240][Q:1/4=240] A8 _B8 | %132
w: ||Sal- vum|
 A8 z4 A4- | A2 A2 G4 A4 D4 | (A4 G2 F2 E8 | D6) D2 E8 |[M:4/2] z4 c4 B4 A4 | ^G8 z4 E4 | %138
w: fac po\-|* pu- lum tu- um|Do\- * * *|* mi- ne:|et be- ne-|dic hae-|
 ^F4 F4 G4 E4 | D16 | E16 ||[Q:1/4=140][Q:1/4=140][Q:1/4=140] z18 | z18 | z18 || %144
w: re- di- ta- ti|tu-|ae.||||
[Q:1/4=240][Q:1/4=240][Q:1/4=240] z8 c4 c4- | c4 B4 A4 (A4- | A4 G2 F2 E6 F2) | %147
w: Per sin\-|* gu- los di\-||
[M:4/2] G4 (A6 ^G2 G2 ^FG | A8) ||[M:3/1][Q:1/4=480] ^G16 A8 | B12 G4 G8 | E24- | E24 || %153
w: * es, * * * *||be- ne|di- ci- mus|te.||
[Q:1/4=140][Q:1/4=140][Q:1/4=140] z36 | z22 ||[Q:1/4=240][Q:1/4=240][Q:1/4=240] A8 A4 c4 | %156
w: ||Di- gna- re|
 A6 A2 G4 (E4- | E2 F2 G2 A2 B2 c2 d4) | c4 (A8 ^G4) | A16 |[M:4/2] z16 | A8 F4 G4 | E8 ^F8 | %163
w: Do- mi- ne di\-||e i\- *|sto:||si- ne pec-|ca- to|
 G8 A8 | B8 G8 | E16- | E16 ||[Q:1/4=140][Q:1/4=140][Q:1/4=140] z30 | z18 || %169
w: nos cu-|sto- di-|re.||||
[M:4/2][Q:1/4=240][Q:1/4=240][Q:1/4=240] A8 A4 A4 | A4 A4 A6 A2 | A4 A8 A4 | A12 A4 | A8 ^G8- | %174
w: Fi- at mi-|se- re- cor- di-|a tu- a|Do- mi-|ne su\-|
 G4 A4 B8- | B8 z4 A4 | A6 A2 A4 A4 | G12 A4 | B8 G8- | G16 | E24 || %181
w: * per nos:|* quem-|ad- mo- dum spe-|ra- vi-|mus in||te.|
[Q:1/4=140][Q:1/4=140][Q:1/4=140] z32 | z34 |] %183
w: ||
V:2
 z24 ||[M:4/2][K:treble] z8 E8- | E8 (E6 ^F2 | G4) D4 E8- | E4 C4 D8 | (E8 D8- | D8) D16 || z18 | %8
w: |Te|* Do\- *|* mi- num|* con- fi-|te\- *|* mur.||
 z26 ||[M:4/2] E16 | E8 D8 | E16 | E12 E4 | ^C8 z8 | F8 F8 | E8 F8- | F8 D8 | G4 G4 E8 | E8 D4 C4 | %19
w: |Ti-|bi o-|mnes|An- ge-|li:|ti- bi|coe- li|* et|u- ni- ver-|sae po- te-|
 (B,8 A,8) | G,16 || z26 | z30 ||[M:3/1] z16 x8 | z16 x8 | z16 x8 | (C12 D4 E8 | F16 E4 D4 | E24) | %29
w: sta\- *|tes.||||||San\- * *|||
 E24 | F8 E8 | ^F12 F4 | G8 E8- | E8 E8- | E4 D8 D4 | B,16 || z22 | z28 || z4 C4 E4 G4 | (F8 E8- | %40
w: ctus.|San- ctus|Do- mi-|nus De\-|* us|* Sa- ba-|oth.|||Te glo- ri-|o\- *|
 E4) D4 z4 C4 | E4 G4 (E6 F2 | G2 D2 G8 ^F4) |[M:4/2] G4 D4 D4 D4 | E8 C4 (F4- | F4 E2 D2 E8- | %46
w: * sus, te|glo- ri- o\- *||sus A- po- sto-|lo- rum cho\-||
 E8 D8) | D16 || z36 || F4 F8 F4 | F8 E8- | E8 (D8 | E8) (E8 | F8) E8 |[M:4/2] D8 z8 | D8 B,8 | %56
w: |rus:||Te Mar- ty-|rum can\-|* di\-|* da\-|* tus||lau- dat|
 z4 E4 (C6 D2 | E4) B,4 D8- | D16 || z20 | z28 || E16 | E8 z4 G4 | F4 D4 F4 F4 | E16 | D16- | %66
w: ex- er\- *|* ci- tus.||||Pa-|trem im-|men- sae ma- je-|sta-|tis,|
[M:4/2] D8 z8 | z4 G4 F8 | D8 E8- | E4 D4 C8 | B,16 || z22 | z20 || (C8 D8 | E16) | D8 F8 | %76
w: |im- men-|sae ma\-|* je- sta-|tis:|||San\- *||ctum quo-|
 E4 D4 (C6 D2 | E4) A,4 C4 (E4- | E2 D2 C8) B,4 | B,16 || z22 || E8 F8 | E16 | z4 E8 F4 | %84
w: que Pa- ra\- *|* cli- tum Spi\-|* * * ri-|tum.||Tu Pa-|tris|sem- pi-|
 G4 D4 E8 | C12 B,4 | B,16 || z38 | z30 || E12 E4 | E4 E4 C4 (A,2 B,2 | C2 D2 E2 F2 G8- | G8) F8 | %93
w: ter- nus es|Fi- li-|us.|||Tu de-|vi- cto mor- tis *||* a-|
 E12 E4 | E4 E4 F4 E4 |[M:4/2] F8 E4 E4 | F4 F4 (E2 D2 C2 B,2 | A,8) z4 B,4 | D16 | E8 C8- | %100
w: cu- le-|o: a- pe- ru-|i- sti cre-|den- ti- bus * * *|* re-|gna|coe- lo\-|
 C8 (A,8- | A,4 ^G,2 ^F,2 G,16) || z28 | z18 || z4 C8 (A,4- | A,4 ^G,2 ^F,2 G,8) | z4 E8 F4 | %107
w: * rum.||||Ju- dex||cre- de-|
 D4 G4 F4 F4 | E8 C4 F4 | E4 D4 (E6 D2 | C16) | B,16 || E8 F8 | F8 F8- | F4 E4 E8 | F4 F4 F8 | %116
w: ris es- se ven-|tu- rus, es-|se ven- tu\- *||rus.|Te er-|go quae\-|* su- mus,|fa- mu- lis|
 D8 D4 E4- | E4 D4 E8- | E8 z4 E4- | E4 D8 ^C4 |[M:4/2] F8 E8- | E8 F8 | F4 E4 D8 | E4 D8 ^C4 | %124
w: tu- is sub\-|* ve- ni:|* quos|* pre- ti-|o- so,|* quos|pre- ti- o-|so- san- gui-|
 ^C8 D8- | D16 | E16 | C16 | B,16 || z18 | z32 ||[M:4/2] F8 F8 | F8 z4 F4- | F2 F2 D4 F8 | %134
w: ne re\-||de-|mi-|sti.|||Sal- vum|fac po\-|* pu- lum tu-|
 E4 (D6 C2 C4- | C4) B,4 C4 C4 | G12 E4 | E4 B,4 ^C4 C4 | D4 D8 (C4- | C4 B,2 A,2 B,8) | C16 || %141
w: um Do\- * *|* mi- ne: et|be- ne-|dic hae- re- di-|ta- ti tu\-||ae.|
 z18 | z18 | z18 || C4 C6 B,2 A,4 | (E2 F2 G2 E2 F2 E2 D2 CB, | A,16) |[M:4/2] E8 z8 | z8 || %149
w: |||Per sin- gu- los|di\- * * * * * * * *||es,||
[M:3/1] E16 ^F8 | G8 D16 | C24 | B,24 || z36 | z22 || E8 E4 G4 | F6 F2 E4 (G4- | G2 F2 E4) (D6 E2 | %158
w: be- ne-|di- ci-|mus|te.|||Di- gna- re|Do- mi- ne di\-|* * * e *|
 F4) (E2 D2 E8) | C8 z4 E4 |[M:4/2] F4 D4 (E8 | F6 E2 D2 C2 D4- | D4 ^C4) D8- | D8 z4 D4 | %164
w: * i\- * *|sto: si-|ne pec- ca\-||* * to|* nos|
 D4 D4 (B,8 | A,6 B,2 C8) | B,16 || z30 | z18 || E8 F4 F4 | F4 F4 E6 E2 | F8 F8 | F4 (E8 D2 C2 | %173
w: cu- sto- di\-||re.|||Fi- at mi-|se- re- cor- di-|a tu-|a Do\- * *|
 D4) D4 E4 E4- | E4 ^F4 G8 |[M:4/2] z4 G4 F6 F2 | E4 A,4 E,4 ^F,4 | G,4 B,4 E4 C4 | %178
w: * mi- ne su\-|* per nos:|quem- ad- mo-|dum spe- ra- vi-|mus in te, quem-|
 (B,6 C2 D4) E4 | D4 C4 G,4 G,4 | A,4 C4 B,16 || z32 | z34 |] %183
w: ad\- * * mo-|dum spe- ra- vi-|mus in te.|||
V:3
"^Te Deum laudamus""^Felice Anerio\n(c. 1560-1614)" E2 (G2 A2) A2 (A2 G2) (A2 B2 c2) (B2 A4) || %1
w: Te De\- * um lau\- * da\- * * mus *|
[M:4/2][K:treble-8] z8 c8 | c12 c4 | d4 B4 B4 (c4- | c2 B2 A2 G2 F8 | c6 B2 A8- | A8) G16 || %7
w: Te|Do- mi-|num con- fi- te\-|||* mur.|
 (G2 B2) A2 c2 B2 (A2 B2) A4 | E2 (G2 A2) A2 A2 G2 (A2 B2) (B2 A2 G2) G4 || %9
w: Te * ae- ter- num Pa\- * trem:|o- mnis * ter- ra ve- ne\- * ra\- * * tur.|
[M:4/2][K:treble-8] c8 c8 | B8 A8 | (B8 c8- | c4 B2 A2 B4) B4 | A8 z8 | A8 D4 d4- | %15
w: Ti- bi|o- mnes|An\- *|* * * * ge-|li:|ti- bi coe\-|
 (d2 ^cB c4) d4 A4 | d4 d4 B8 | (G6 A2 B8) | (E2 F2 G2 A2 B4) c4 | d16 | B16 || %21
w: * * * * li, et|u- ni- ver-|sae * *|po\- * * * * te-|sta-|tes.|
 (G2 B2) A2 c2 B2 A2 A2 (A2 B2) (A2 G2) A4 | E2 (G2 A2) A2 A2 A2 A2 G2 (A2 B2) (B2 A2 G2) G4 || %23
w: Ti\- * bi Che- ru- bim et Se\- * ra\- * phim:|in- ces\- * sa- bi- li vo- ce pro\- * cla\- * * mant.|
[M:3/1][K:treble-8] (G12 A4 B8 | c16 B8 | A8 G16 | A12 B4 c4 B4 | d16 c8- | c8 B16) | A24 | %30
w: San\- * *||||||ctus,|
 d8 ^c8 | d12 d4 | d8 c8 | c4 (A8 G2 F2 | E2 F2 G8) ^F4 | G16 || %36
w: San- ctus|Do- mi-|nus De-|us Sa\- * *|* * * ba-|oth.|
 (G2 B2) B2 A2 c2 B2 A2 (A2 B2) A4 | E2 (G2 A2) A2 A2 A2 G2 (A2 B2) (B2 A2 G2) G4 || z16 | z8 c8 | %40
w: Ple\- * ni sunt cae- li et ter\- * ra:|ma- jes\- * ta- tis glo- ri- ae * tu\- * * ae.||Te-|
 B8 A8 | (B8 c8) | (B8 A8) |[M:4/2][K:treble-8] z4 B4 A4 B4 | c16- | c8 G8 | (c6 B2 A8) | G16 || %48
w: glo- ri|o\- *|sus *|A- po- sto-|lo\-|* rum|cho\- * *|rus:|
 (G2 B2 A2) c2 B2 (A2 B2) A2 A2 A2 G2 (A2 B2) B2 (A2 G2) G4 || c4 c8 d4 | d8 (c8- | c4 B2 A2 B8- | %52
w: Te * * Pro- phe- ta\- * rum lau- da- bi- lis * nu- me\- * rus:|Te Mar- ty-|rum can\-||
 B4) c8 (e4- | e2 d2 d6 ^cB c4) |[M:4/2][K:treble-8] A8 z4 (A4- | A4 B8) G4- | G4 c4 (A2 B2 c4- | %57
w: * di- da\-||tus lau\-|* * dat|* ex- er\- * *|
 c2 B2 B2 AG A4) A4 | G16 || (G2 B2) A2 c2 B2 A2 (A2 B2) A4 | %60
w: * * * * * * ci-|tus.|Te * per or- bem ter- ra\- * rum|
 E2 (G2 A2) A2 A2 A2 G2 (A2 B2) B2 (A2 G2) G4 || B8 c8 | z4 e4 d4 B4 | d4 d4 A8 | A4 A4 G4 E4 | %65
w: san- cta * con- fi- te- tur Ec\- * cle- si\- * a:|Pa- trem|im- men- sae|ma- je- sta-|tis, im- men- sae|
 G4 G4 G8 |[M:4/2][K:treble-8] D4 d4 c4 A4 | c4 B4 (d6 c2 | B2 A2 G4) C4 c4- | c4 B4 A8 | ^G16 || %71
w: ma- je- sta-|tis, im- men- sae|ma- je- sta\- *|* * * tis, ma\-|* je- sta-|tis:|
 (G2 B2) A2 c2 B2 A2 A2 (A2 B2) A4 | A2 A2 G2 (A2 B2) B2 (A2 G2) G4 || (A12 G2 F2 | G8) G8 | %75
w: Ve\- * ne- ran- dum tu- um ve\- * rum,|et u- ni- cum * Fi- li\- * um:|San\- * *|* ctum|
 z8 d8 | c4 B4 (A6 B2 | ^c4) d4 G8 | z4 A8 ^G4 | ^G16 || (G2 A2) A2 (A2 G2) A2 (A2 B2) G2 E4 || %81
w: quo-|que Pa- ra\- *|* cli- tum|Spi- ri-|tum.|Tu * Rex glo\- * ri- ae, * Chri- ste.|
 c8 d8 | c16 | B8 c8 | d4 (B6 AB c4) | G4 A8 ^G4 | ^G16 || %87
w: Tu Pa-|tris|sem- pi-|ter- nus * * *|es Fi- li-|us.|
 E2 (G2 A2) A2 A2 A2 A2 A2 A2 A2 G2 (A2 B2 c2) (B2 A2 G2) A4 | %88
w: Tu ad * li- be- ran- dum su- sce- ptu- rus ho\- * * mi\- * * nem,|
 E2 (G2 A2) A2 A2 A2 (A2 G2) A2 (A2 B2) G2 G2 E4 || z16 | z8 e8- | e4 e4 e4 e4 | e4 d8 d4 | %93
w: non ho\- * ru- i- sti Vir\- * gi- nis * u- te- rum.||Tu|* de- vi- cto|mor- tis a-|
 (c8 B6) B2 | ^c8 z4 A4- |[M:4/2][K:treble-8] A4 d8 ^c4 | d8 ^c4 e4 | d4 A4 B4 (G4- | %98
w: cu\- * le-|o: a\-|* pe- ru-|i- sti cre-|den- ti- bus re\-|
 G2 ^F2 F4) G8 | (E6 =F2 G8) | (A6 B2 c8) | B24 || E2 (G2 A2) A2 A2 A2 A2 G2 (A2 B2 c2) (B2 A4) | %103
w: * * * gna|coe\- * *|lo\- * *|rum.|Tu ad * dex- te- ram De- i se\- * * des *|
 A2 (A2 G2) A2 (A2 B2) G2 E4 || (G8 A8 | B16) | A8 c8- | c4 B4 A8 | G8 A8 | B8 G8 | E16- | E16 || %112
w: in glo\- * ri- a * Pa- tris.|Ju\- *||dex cre\-|* de- ris|es- se|ven- tu-|rus.||
 c8 c8 | c8 d8- | d4 ^c4 c8 | d12 A4 | B4 B8 G4 | (A8 B6) B2 | A8 c8 | B4 A4 G8 | %120
w: Te er-|go quae\-|* su- mus,|fa- mu-|lis tu- is|sub\- * ve-|ni: quos|pre- ti- o-|
[M:4/2][K:treble-8] A4 (d8 ^c2 B2 | ^c4) c4 d4 d4 | d4 c4 B8 | A4 (F8 E2 D2 | E8) ^F8 | G8 z8 | %126
w: so san\- * *|* gui- ne, quos|pre- ti- o-|so san\- * *|* gui-|ne|
 c8 B8 | A16 | ^G16 || F2 (F2 E2) (D2 F2) (E2 D2 C4) | %130
w: re- de-|mi-|sti.|Ae- ter\- * na * fac * *|
 C2 E2 F2 G2 G2 G2 G2 G2 G2 A2 F2 (G2 F2 E2) E4 ||[M:4/2][K:treble-8] c8 d8 | c4 c6 c2 A4 | %133
w: cum San- ctis tu- is in glo- ri- a nu- me- ra\- * * ri.|Sal- vum|fac po- pu- lum|
 c4 B4 A8- | A4 D4 G8- | G8 z4 G4 | (c2 d2 e2 c2 d4) c4 | B4 e8 A4- | A4 A4 D4 G4 | G16 | G16 || %141
w: tu- um Do\-|* mi- ne:|* et|be\- * * * * ne-|dic hae- re\-|* di- ta- ti|tu-|ae.|
 F2 (F2 E2) D2 F2 (E2 D2 C4) | C2 (E2 F2) (F2 E2) E2 G2 G4 | G2 G2 A2 F2 (G2 F2 E2) E4 || z16 | %145
w: Et re\- * ge e- os, * *|et ex\- * tol\- * le il- los,|us- que in ae ter\- * * num.||
 z16 | z8 c4 c4- |[M:4/2][K:treble-8] c2 B2 A4 B8 | A8 ||[M:3/1] B16 c8 | d16 B8 | A24 | ^G24 || %153
w: |Per sin\-|* gu- los di-|es,|be- ne-|di- ci-|mus|te.|
 E2 (G2 A2) A2 A2 A2 A2 A2 A2 G2 (A2 B2 c2) (B2 A2 G2) A4 | A2 A2 (A2 G2) A2 (A2 B2) G2 G2 E4 || %155
w: Et lau\- * da- mus no- men tu- um in sae\- * * cu\- * * lum,|et in sae\- * cu- lum * sae- cu- li.|
 c8 c4 c4 | c6 c2 c8- | c8 B8 | A8 B8 | A4 e8 c4 |[M:4/2][K:treble-8] d4 (B6 A2 B2 c2 | %161
w: Di- gna- re|Do- mi- ne|* di-|e i-|sto: si- ne|pec- ca\- * * *|
 d4) A2 A2 _B4 G4 | A8 D8 | z4 G4 F4 F4 | (G2 A2 B2 c2 d8 | c6 B2 A8) | ^G16 || %167
w: * to, si- ne pec-|ca- to|nos cu- sto-|di\- * * * *||re.|
 E2 (G2 A2) A2 A2 A2 G2 (A2 B2 c2) (B2 A2 G2) A4 | A2 (A2 G2) A2 (A2 B2) G2 E4 || A8 D4 D4 | %170
w: Mi- se\- * re- re no- stri Do\- * * mi\- * * ne,|mi- se\- * re- re * no- stri.|Fi- at mi-|
 d4 d4 c6 c2 | c4 c4 A4 (d4- | d4 c2 B2 A8- | A4) A4 B8 | B4 c4 d4 G4 | %175
w: se- re- cor- di-|a tu- a Do\-||* mi- ne|su- per nos: quem-|
[M:4/2][K:treble-8] d6 d2 A4 d4 | ^c4 d4 e4 (d2 c2 | B2 A2 G8 ^F4) | G4 d4 B4 c4 | d4 e4 B8 | %180
w: ad- mo- dum spe-|ra- vi- mus in *||te, spe- ra- vi-|mus in te,|
 z4 A4 ^G16 || C2 (D2 F2) (F2 E2) D2 F2 (G2 A2) (G2 F2 G2 F2) (E2 D4) | %182
w: in te.|In te * Do\- * mi- ne spe\- * ra\- * * * vi: *|
 D2 (E2 G2) (G2 F2) (E2 D2) F2 (G2 A2) (G2 F2 G2 F2 E2) E4 |] %183
w: non con\- * fun\- * dar * in ae\- * ter\- * * * * num.|

